X: 32638
T: Pleasures Of Salisbury, The
R: jig
M: 6/8
K: Dmajor
FGA Bcd|efg fdA|BAB Acd|AGF E2D|
FGA Bcd|efg fdA|BAB Agf|1 edc d2A:|2 edc dcd||
|:ecA ecA|fdA fdA|Bcd AGF|GEE E2E|
FED GFE|AGF BAG|Bgf edc|1 d3 dcd:|2 d3 z2d||

